.local/share/icons/Gruvbox-Plus-Dark/panel/22/weather-showers-scattered.svg

<svg xmlns="http://www.w3.org/2000/svg" width="22" height="22" version="1.1">
 <defs>
  <style id="current-color-scheme" type="text/css">
   .ColorScheme-Text { color:#ebdbb2; } .ColorScheme-Highlight { color:#458588; }
  </style>
 </defs>
 <g transform="translate(-33.000007,-705.28994)">
  <path style="fill:currentColor" class="ColorScheme-Text" d="M 11 3.0039062 C 8.92893 3.0039062 7.16529 4.2718263 6.40625 6.0664062 C 4.47842 6.3530063 3 7.9963263 3 10.003906 C 3 11.936906 4.36477 13.537176 6.1875 13.910156 C 6.95162 13.131616 7.70872 12.348706 8.5 11.597656 C 9.07304 12.135666 9.63306 12.696886 10.1875 13.253906 C 10.43042 13.184906 10.57002 12.407736 10.90625 12.160156 C 11.76052 11.292076 12.61549 10.435326 13.5 9.5976562 C 14.16629 10.222146 14.79148 10.858716 15.4375 11.503906 C 16.03544 12.075336 16.66508 12.707556 16.875 13.535156 C 16.891 13.586256 16.89305 13.639806 16.90625 13.691406 C 18.1415 13.150916 19 11.938456 19 10.503906 C 19 8.7073662 17.64921 7.2352063 15.90625 7.0351562 C 15.45168 4.7417662 13.42687 3.0039062 11 3.0039062 z M 13.5 11 L 13.15625 11.34375 L 11.75 12.75 C 11.29685 13.20315 11 13.8126 11 14.5 C 11 15.87479 12.12521 17 13.5 17 C 14.87479 17 16 15.87479 16 14.5 C 16 13.8126 15.70315 13.20315 15.25 12.75 L 13.84375 11.34375 L 13.5 11 z M 8.5 13 L 8.15625 13.34375 L 6.75 14.75 C 6.29685 15.20315 6 15.8126 6 16.5 C 6 17.87479 7.12521 19 8.5 19 C 9.87479 19 11 17.87479 11 16.5 C 11 15.8126 10.70315 15.20315 10.25 14.75 L 8.84375 13.34375 L 8.5 13 z" transform="translate(33.000007,705.28994)"/>
 </g>
</svg>

<svg width="22" height="22" version="1.1" xmlns="http://www.w3.org/2000/svg">
  <defs>
    <style id="current-color-scheme" type="text/css">.ColorScheme-Text { color:#ebdbb2; } .ColorScheme-Highlight { color:#458588; } .ColorScheme-NeutralText { color:#fe8019; } .ColorScheme-PositiveText { color:#689d6a; } .ColorScheme-NegativeText { color:#fb4934; }</style>
  </defs>
  <path class="ColorScheme-Text" d="m11 3.004c-2.071 0-3.835 1.268-4.594 3.062-1.928 0.2866-3.406 1.93-3.406 3.937 0 1.933 1.365 3.533 3.188 3.906 0.7641-0.7785 1.521-1.561 2.312-2.312 0.573 0.538 1.133 1.099 1.688 1.656 0.2429-0.069 0.3825-0.8462 0.7188-1.094 0.8543-0.8681 1.709-1.725 2.594-2.562 0.6663 0.6245 1.291 1.261 1.938 1.906 0.5979 0.5714 1.228 1.204 1.438 2.031 0.016 0.0511 0.01805 0.1046 0.03125 0.1562 1.235-0.5405 2.094-1.753 2.094-3.188 0-1.797-1.351-3.269-3.094-3.469-0.4546-2.293-2.479-4.031-4.906-4.031zm2.5 7.996-1.75 1.75c-0.4532 0.4532-0.75 1.063-0.75 1.75 0 1.375 1.125 2.5 2.5 2.5s2.5-1.125 2.5-2.5c0-0.6874-0.2968-1.297-0.75-1.75l-1.75-1.75zm-5 2-1.75 1.75c-0.4532 0.4532-0.75 1.063-0.75 1.75 0 1.375 1.125 2.5 2.5 2.5s2.5-1.125 2.5-2.5c0-0.6874-0.2968-1.297-0.75-1.75l-1.75-1.75z" fill="currentColor"/>
</svg>
